src/assets/svg/3-login-share-newsletter/1-copy.svg

<svg width="18" height="18" viewBox="0 0 18 18" fill="none" xmlns="http://www.w3.org/2000/svg">
<path d="M3.375 16.4813C3.075 16.4813 2.8125 16.3688 2.5875 16.1438C2.3625 15.9188 2.25 15.6563 2.25 15.3563V4.05001H3.375V15.3563H12.2625V16.4813H3.375ZM5.625 14.2313C5.325 14.2313 5.0625 14.1188 4.8375 13.8938C4.6125 13.6688 4.5 13.4063 4.5 13.1063V2.60626C4.5 2.30626 4.6125 2.04376 4.8375 1.81876C5.0625 1.59376 5.325 1.48126 5.625 1.48126H13.875C14.175 1.48126 14.4375 1.59376 14.6625 1.81876C14.8875 2.04376 15 2.30626 15 2.60626V13.1063C15 13.4063 14.8875 13.6688 14.6625 13.8938C14.4375 14.1188 14.175 14.2313 13.875 14.2313H5.625ZM5.625 13.1063H13.875V2.60626H5.625V13.1063ZM5.625 13.1063V2.60626V13.1063Z" fill="#E9E8E8"/>
</svg>

<svg width="18" height="18" fill="none" xmlns="http://www.w3.org/2000/svg"><path d="M3.375 16.481c-.3 0-.563-.112-.788-.337a1.08 1.08 0 0 1-.337-.788V4.05h1.125v11.306h8.887v1.125H3.375Zm2.25-2.25c-.3 0-.563-.112-.787-.337a1.08 1.08 0 0 1-.338-.788v-10.5c0-.3.112-.562.338-.787a1.08 1.08 0 0 1 .787-.338h8.25c.3 0 .563.113.787.338.225.225.338.487.338.787v10.5c0 .3-.113.563-.338.788a1.08 1.08 0 0 1-.787.337h-8.25Zm0-1.125h8.25v-10.5h-8.25v10.5Zm0 0v-10.5 10.5Z" fill="#E9E8E8"/></svg>
